X:1
T:53
L:1/8
M:2/4
K:C
V:1 treble nm="Piano" snm="Pno."
V:1
 C2 CE | G>A G2 | ED CD | EF G2 | A2 AG | F>E G2 | (3EFG ED | C>E D2 | D2 DC | DE/F/ G2 | A2 BA | %11
 G G2 F | E2 cB | A/G/F/E/ DE | F2 D>E | C4 |] %16

